modules/dashboard/images/cx-find-missing.svg

<?xml version="1.0" encoding="utf-8"?>
<svg xmlns="http://www.w3.org/2000/svg" preserveAspectRatio="xMidYMid" width="74" height="74" viewBox="0 0 37 37">
    <defs>
        <style>
            .cls-2 { fill: #2460cf; }
        </style>
    </defs>
    <path d="M18.5 0C8.288 0 0 8.288 0 18.5S8.288 37 18.5 37 37 28.712 37 18.5 28.712 0 18.5 0zm1.85 31.45h-3.7v-3.7h3.7v3.7zm3.83-14.338l-1.665 1.703c-1.333 1.35-2.165 2.46-2.165 5.235h-3.7v-.925c0-2.035.833-3.885 2.164-5.235l2.294-2.332c.685-.665 1.092-1.59 1.092-2.608 0-2.035-1.665-3.7-3.7-3.7s-3.7 1.665-3.7 3.7h-3.7c0-4.09 3.312-7.4 7.4-7.4 4.09 0 7.4 3.31 7.4 7.4 0 1.628-.666 3.108-1.72 4.162z" id="path-1" class="cls-2" fill-rule="evenodd"/>
</svg>

<?xml version="1.0" encoding="utf-8"?>
<svg xmlns="http://www.w3.org/2000/svg" xmlns:xlink="http://www.w3.org/1999/xlink" preserveAspectRatio="xMidYMid" width="74" height="74" viewBox="0 0 37 37">
  <defs>
    <style>

      .cls-2 {
        fill: #2460cf;
      }
    </style>
  </defs>
  <path d="M18.500,-0.000 C8.288,-0.000 0.000,8.288 0.000,18.500 C0.000,28.712 8.288,37.000 18.500,37.000 C28.712,37.000 37.000,28.712 37.000,18.500 C37.000,8.288 28.712,-0.000 18.500,-0.000 ZM20.350,31.450 C20.350,31.450 16.650,31.450 16.650,31.450 C16.650,31.450 16.650,27.750 16.650,27.750 C16.650,27.750 20.350,27.750 20.350,27.750 C20.350,27.750 20.350,31.450 20.350,31.450 ZM24.179,17.112 C24.179,17.112 22.515,18.815 22.515,18.815 C21.182,20.165 20.350,21.275 20.350,24.050 C20.350,24.050 16.650,24.050 16.650,24.050 C16.650,24.050 16.650,23.125 16.650,23.125 C16.650,21.090 17.483,19.240 18.814,17.890 C18.814,17.890 21.108,15.558 21.108,15.558 C21.793,14.893 22.200,13.968 22.200,12.950 C22.200,10.915 20.535,9.250 18.500,9.250 C16.465,9.250 14.800,10.915 14.800,12.950 C14.800,12.950 11.100,12.950 11.100,12.950 C11.100,8.861 14.412,5.550 18.500,5.550 C22.589,5.550 25.900,8.861 25.900,12.950 C25.900,14.578 25.234,16.058 24.179,17.112 Z" id="path-1" class="cls-2" fill-rule="evenodd"/>
</svg>
